X:1
T:Title
%%score { ( 1 3 ) | 2 }
L:1/8
M:4/4
K:C
V:1 treble nm="Grand Piano"
V:3 treble 
V:2 bass 
V:1
 z4 z2[Q:1/4=100] G>B | d6 z2 | e6 z2 | d2 d>c B2 A2 |[M:3/4] G6 |] %5
V:2
 z8 | z2 [G,B,]>[G,B,] [G,B,]2 z2 | z2 [C,G,]>[C,G,] [C,G,]2 [C,G,]>[C,G,] | %3
 [G,B,D]2 [G,B,D]>[G,B,D] [G,B,D]2 [D,A,D]2 |[M:3/4] [G,B,]6 |] %5
V:3
 x8 | z2 D>D D2 B>G | z2 G>G G2 [Ge]>[Ge] | x8 |[M:3/4] x6 |] %5

